X:167
T:Groddaliran
R:sl\"angpolska
H:spelad p{\aa} vevlira av "Grodd-Ole", Olof Larsson (1768-1837) fr{\aa}n Grodda i Fleringe.
A:Gotland
Z:id:hn-sp-167
M:3/4
L:1/16
K:G
G2F2 G2A2 A2B2 | B2G2 A2B2 c4 | B2A2 B2G2 B2d2 | edcB A4 A4 |
G2F2 G2A2 A2B2 | B2G2 A2B2 c4 | B2A2 B2c2 d2c2 | B2A2 G4 G4 :|
|: B2c2 d2e2 e2d2 | c2B2 c2d2 d2c2 | B2A2 B2G2 B2d2 | edcB A4 A4 |
G2F2 G2A2 A2B2 | B2G2 A2B2 c4 | B2A2 B2c2 d2c2 | B2A2 G4 G4 :|
<end>
<start>
